X: 450
P: Longways for as many as will
M: 6/4
L: 1/4
K: G
c>dc c2g | B>cB B2d | A>BG FDF | G3- G2 :|
|: d |\
d>ed g2d | d>ed e2d | efg fga | f3 f>ga |\

